X: 436
T:Sasino Kolo
O:Yugoslavia
F: http://www.youtube.com/watch?v=G11JFTw4-A8
L:1/8
M:2/4
Q:1/4=180
K:G
|:"C"A2 Bc| e3 e       |fe^dc       | e3 e         |\
 "D7" fe^dc    |^dcBA    | [1 "G"B4      |"E" e2 e2        :| [2"G" B3 A |B4   |
|:"E"E2 F^G| "Am"A4     | "E"^GB"E"GE| "B"F4        |\
  "E"^GBGE |"Am"A^G"B"FE| F4         | [1 "E"B2 B2  :| [2 "B"F4|
|:"E"AB^GE |A^G"B"FE    |"E"AB^GE    |A^G"B"FE      |\
  "E"AB^GE |"E"A^G"B"FE | [1"B"F4    | "E"B2 B2     :| [2 "B"F4|"B"F4|



